Adwaita++/actions/16/align-vertical-bottom-out.svg

<svg height="16" viewBox="0 0 16 16" width="16" xmlns="http://www.w3.org/2000/svg">
  <path d="m2 1v7h5v-7zm7 2v5h5v-5zm-8 7v2h14v-2zm8 3v2h5v-2z" fill="#474747"/>
</svg>

<svg xmlns="http://www.w3.org/2000/svg" width="16" height="16" viewBox="0 0 16 16">
 <defs>
  <style id="current-color-scheme" type="text/css">
   .ColorScheme-Text { color:#474747; } .ColorScheme-Highlight { color:#4285f4; }
  </style>
 </defs>
 <path style="fill:currentColor" class="ColorScheme-Text" d="M 2 1 L 2 8 L 7 8 L 7 1 L 2 1 z M 9 3 L 9 8 L 14 8 L 14 3 L 9 3 z M 1 10 L 1 12 L 15 12 L 15 10 L 1 10 z M 9 13 L 9 15 L 14 15 L 14 13 L 9 13 z"/>
</svg>
